svgs/regular/train-subway-tunnel.svg

<svg xmlns="http://www.w3.org/2000/svg" viewBox="0 0 512 512"><!--! Font Awesome Pro 6.3.0 by @fontawesome - https://fontawesome.com License - https://fontawesome.com/license (Commercial License) Copyright 2023 Fonticons, Inc. --><path d="M256 48C141.1 48 48 141.1 48 256V488c0 13.3-10.7 24-24 24s-24-10.7-24-24V256C0 114.6 114.6 0 256 0S512 114.6 512 256V488c0 13.3-10.7 24-24 24s-24-10.7-24-24V256c0-114.9-93.1-208-208-208zm24 128l0 80h72V208c0-17.7-14.3-32-32-32H280zm-48 0H192c-17.7 0-32 14.3-32 32v48h72l0-80zM160 304v64c0 17.7 14.3 32 32 32H320c17.7 0 32-14.3 32-32V304H160zm-48-96c0-44.2 35.8-80 80-80H320c44.2 0 80 35.8 80 80V368c0 27.7-14.1 52.2-35.5 66.5L401 471c9.4 9.4 9.4 24.6 0 33.9s-24.6 9.4-33.9 0l-57-57H201.9l-57 57c-9.4 9.4-24.6 9.4-33.9 0s-9.4-24.6 0-33.9l36.5-36.5C126.1 420.2 112 395.7 112 368V208zm64 144a24 24 0 1 1 48 0 24 24 0 1 1 -48 0zm136-24a24 24 0 1 1 0 48 24 24 0 1 1 0-48z"/></svg>

<svg xmlns="http://www.w3.org/2000/svg" viewBox="0 0 512 512"><!--! Font Awesome Pro 6.2.0 by @fontawesome - https://fontawesome.com License - https://fontawesome.com/license (Commercial License) Copyright 2022 Fonticons, Inc. --><path d="M256 48C141.1 48 48 141.1 48 256V488C48 501.3 37.25 512 24 512C10.75 512 0 501.3 0 488V256C0 114.6 114.6 0 256 0C397.4 0 512 114.6 512 256V488C512 501.3 501.3 512 488 512C474.7 512 464 501.3 464 488V256C464 141.1 370.9 48 256 48zM224 352C224 365.3 213.3 376 200 376C186.7 376 176 365.3 176 352C176 338.7 186.7 328 200 328C213.3 328 224 338.7 224 352zM288 352C288 338.7 298.7 328 312 328C325.3 328 336 338.7 336 352C336 365.3 325.3 376 312 376C298.7 376 288 365.3 288 352zM112 208C112 163.8 147.8 128 192 128H320C364.2 128 400 163.8 400 208V368C400 395.7 385.9 420.2 364.5 434.5L400.1 471C410.3 480.4 410.3 495.6 400.1 504.1C391.6 514.3 376.4 514.3 367 504.1L310.1 448H201.9L144.1 504.1C135.6 514.3 120.4 514.3 111 504.1C101.7 495.6 101.7 480.4 111 471L147.5 434.5C126.1 420.2 112 395.7 112 368V208zM280 256H352V208C352 190.3 337.7 176 320 176H280V256zM232 176H192C174.3 176 160 190.3 160 208V256H232V176zM160 304V368C160 385.7 174.3 400 192 400H320C337.7 400 352 385.7 352 368V304H160z"/></svg>
